public/svg/icon/cloak.svg

<svg xmlns="http://www.w3.org/2000/svg" xmlns:xlink="http://www.w3.org/1999/xlink" width="32" height="32" viewBox="0 0 32 32"><defs><linearGradient id="cloak-c" x1="50%" x2="50%" y1="0%" y2="100%"><stop offset="0%" stop-color="#FFF" stop-opacity=".5"/><stop offset="100%" stop-opacity=".5"/></linearGradient><circle id="cloak-b" cx="16" cy="15" r="15"/><filter id="cloak-a" width="111.7%" height="111.7%" x="-5.8%" y="-4.2%" filterUnits="objectBoundingBox"><feOffset dy=".5" in="SourceAlpha" result="shadowOffsetOuter1"/><feGaussianBlur in="shadowOffsetOuter1" result="shadowBlurOuter1" stdDeviation=".5"/><feComposite in="shadowBlurOuter1" in2="SourceAlpha" operator="out" result="shadowBlurOuter1"/><feColorMatrix in="shadowBlurOuter1" values="0 0 0 0 0 0 0 0 0 0 0 0 0 0 0 0 0 0 0.199473505 0"/></filter><path id="cloak-e" d="M16.0031194,4 C22.0689039,4.00980134 27.0020045,8.94589012 26.9999994,15.0031186 C26.9977715,21.0670298 22.0617745,26 15.9964356,26 L15.9859643,26 C9.92530416,25.9939855 4.99710496,21.0532188 5.00000128,14.9864118 C5.00312039,8.92851502 9.93911737,4 16.0031194,4 Z M16.0002231,5.41785302 C10.7226832,5.41807578 6.42766405,9.71551811 6.4258817,14.9975497 C6.42454493,20.2740123 10.7137715,24.5701181 15.9875239,24.5739049 C21.2706336,24.5741277 25.5725594,20.2784674 25.5770153,14.9982179 C25.579466,12.4436322 24.5833549,10.0391851 22.7722639,8.22727365 C20.9616186,6.41558494 18.557005,5.41785302 16.0011143,5.41785302 L16.0002231,5.41785302 Z M20.7276405,14.0166582 C21.0669555,15.7356797 20.6311708,17.1804864 19.3955563,18.4339442 L19.2264558,18.6054677 L19.0103458,18.499435 C18.8911511,18.4410725 18.7699513,18.3860513 18.6460779,18.334817 L18.1572683,18.1314392 L18.550945,17.7774772 C19.3198064,17.0869282 19.7293015,16.1858731 19.7678448,15.0999291 C19.8070565,14.0135396 19.4225144,13.0668192 18.6249125,12.2860533 C17.9224436,11.598623 16.991611,11.2199348 16.0039661,11.2199348 C14.9185146,11.2199348 13.8867564,11.6861667 13.1738162,12.4990097 C12.3757688,13.4087524 12.0714324,14.5167494 12.2942262,15.7024888 C12.4470628,16.5139953 12.8220248,17.2005346 13.4081953,17.7433952 L13.7947426,18.1015897 L13.3061557,18.2987303 C13.1838419,18.3479597 13.0550671,18.4011988 12.9187173,18.4584476 L12.7083999,18.5468824 L12.549548,18.383601 C11.726102,17.5360078 11.2802916,16.5601061 11.1867182,15.399761 C10.9895457,12.9552176 12.575392,10.801373 14.9577263,10.2785606 C15.3117457,10.2008181 15.6717805,10.16139 16.026691,10.16139 C18.3098821,10.16139 20.2869544,11.7828436 20.7276405,14.0166582 Z M9.97282608,20.3069581 C8.49659426,18.6605557 7.30063705,15.74087 8.37071575,12.483038 C9.42965476,9.25750592 12.4208845,7.04039813 15.8135887,6.96577429 C15.8744115,6.9646605 15.935457,6.96421498 15.9960569,6.96421498 C19.4371074,6.96421498 22.4929473,9.1459043 23.6006782,12.3928211 C24.5466607,15.1654867 23.8891962,18.3170632 21.9257143,20.4221239 L21.6766308,20.6896559 L20.7789945,19.6876916 L20.9768354,19.4647111 C22.2050977,18.0820538 22.7754499,16.4423341 22.671628,14.5918855 C22.5762722,12.9020453 21.9043261,11.4302849 20.6738358,10.2178145 C19.4255221,8.98707803 17.7681589,8.30944898 16.0071966,8.30944898 C14.4039723,8.30944898 12.851545,8.88616877 11.6359819,9.93379842 C10.6830928,10.7544379 10.0071363,11.7764505 9.62727287,12.9711002 C9.24963735,14.1604038 9.20886608,15.3804479 9.50674142,16.5973735 C9.75983519,17.6307466 10.2410698,18.562765 10.9370777,19.367366 L11.1329135,19.5943561 L10.2170081,20.5796136 L9.97282608,20.3069581 Z"/><filter id="cloak-d" width="115.9%" height="115.9%" x="-8%" y="-5.7%" filterUnits="objectBoundingBox"><feOffset dy=".5" in="SourceAlpha" result="shadowOffsetOuter1"/><feGaussianBlur in="shadowOffsetOuter1" result="shadowBlurOuter1" stdDeviation=".5"/><feColorMatrix in="shadowBlurOuter1" values="0 0 0 0 0 0 0 0 0 0 0 0 0 0 0 0 0 0 0.204257246 0"/></filter></defs><g fill="none" fill-rule="evenodd"><use fill="#000" filter="url(#cloak-a)" xlink:href="#cloak-b"/><use fill="#FF3A00" xlink:href="#cloak-b"/><use fill="url(#cloak-c)" style="mix-blend-mode:soft-light" xlink:href="#cloak-b"/><circle cx="16" cy="15" r="14.5" stroke="#000" stroke-opacity=".097"/><g fill-rule="nonzero"><use fill="#000" filter="url(#cloak-d)" xlink:href="#cloak-e"/><use fill="#FFF" fill-rule="evenodd" xlink:href="#cloak-e"/></g></g></svg>

<svg xmlns="http://www.w3.org/2000/svg" xmlns:xlink="http://www.w3.org/1999/xlink" width="32" height="32" viewBox="0 0 32 32"><defs><filter id="a" width="111.7%" height="111.7%" x="-5.8%" y="-4.2%" filterUnits="objectBoundingBox"><feOffset dy=".5" in="SourceAlpha" result="shadowOffsetOuter1"/><feGaussianBlur in="shadowOffsetOuter1" result="shadowBlurOuter1" stdDeviation=".5"/><feComposite in="shadowBlurOuter1" in2="SourceAlpha" operator="out" result="shadowBlurOuter1"/><feColorMatrix in="shadowBlurOuter1" values="0 0 0 0 0 0 0 0 0 0 0 0 0 0 0 0 0 0 0.199473505 0"/></filter><filter id="d" width="115.9%" height="115.9%" x="-8%" y="-5.7%" filterUnits="objectBoundingBox"><feOffset dy=".5" in="SourceAlpha" result="shadowOffsetOuter1"/><feGaussianBlur in="shadowOffsetOuter1" result="shadowBlurOuter1" stdDeviation=".5"/><feColorMatrix in="shadowBlurOuter1" values="0 0 0 0 0 0 0 0 0 0 0 0 0 0 0 0 0 0 0.204257246 0"/></filter><linearGradient id="c" x1="50%" x2="50%" y1="0%" y2="100%"><stop offset="0%" stop-color="#FFF" stop-opacity=".5"/><stop offset="100%" stop-opacity=".5"/></linearGradient><circle id="b" cx="16" cy="15" r="15"/><path id="e" d="M16.003 4C22.07 4.01 27.002 8.946 27 15.003 26.998 21.067 22.062 26 15.996 26h-.01C9.926 25.994 4.997 21.053 5 14.986 5.003 8.93 9.94 4 16.003 4zM16 5.418c-5.277 0-9.572 4.298-9.574 9.58-.001 5.276 4.288 9.572 9.562 9.576 5.283 0 9.585-4.296 9.589-9.576a9.504 9.504 0 00-2.805-6.77 9.512 9.512 0 00-6.77-2.81H16zm4.728 8.599c.339 1.719-.097 3.163-1.332 4.417l-.17.171-.216-.106a6.326 6.326 0 00-.364-.164l-.489-.204.394-.354c.769-.69 1.178-1.591 1.217-2.677.04-1.086-.345-2.033-1.143-2.814a3.725 3.725 0 00-2.621-1.066 3.764 3.764 0 00-2.83 1.279c-.798.91-1.103 2.018-.88 3.203a3.635 3.635 0 001.114 2.041l.387.359-.489.197c-.122.049-.25.102-.387.16l-.21.088-.16-.163c-.823-.848-1.269-1.824-1.362-2.984-.197-2.445 1.388-4.599 3.77-5.121a4.996 4.996 0 011.07-.118 4.798 4.798 0 014.7 3.856zm-10.755 6.29C8.497 18.661 7.3 15.741 8.37 12.483a8.032 8.032 0 017.625-5.519 8.028 8.028 0 017.605 5.429c.946 2.772.288 5.924-1.675 8.03l-.25.267-.897-1.002.198-.223c1.228-1.383 1.798-3.023 1.695-4.873-.096-1.69-.768-3.162-1.998-4.374a6.605 6.605 0 00-4.667-1.909 6.699 6.699 0 00-4.371 1.625 6.588 6.588 0 00-2.009 3.037 6.618 6.618 0 00-.12 3.626 6.592 6.592 0 001.43 2.77l.196.227-.916.986-.244-.273z"/></defs><g fill="none" fill-rule="evenodd"><use fill="#000" filter="url(#a)" xlink:href="#b"/><use fill="#FF3A00" xlink:href="#b"/><use fill="url(#c)" style="mix-blend-mode:soft-light" xlink:href="#b"/><circle cx="16" cy="15" r="14.5" stroke="#000" stroke-opacity=".097"/><g fill-rule="nonzero"><use fill="#000" filter="url(#d)" xlink:href="#e"/><use fill="#FFF" fill-rule="evenodd" xlink:href="#e"/></g></g></svg>
